source/img/icon-gift.svg

<svg xmlns="http://www.w3.org/2000/svg" width="63" height="75.084"><path fill="#81b3d2" d="M60.165 22.23H35.758c13.604-6.815 14.688-11.115 14.188-13.52-1.145-3.916-5.604-6.938-9.848-5.341-5.484 2.063-7.029 10.262-8.514 16.19-1.894-5.998-3.726-13.649-8.011-17.525C22.331.909 20.524-.203 17.897.031c-3.965.352-9.652 5.317-7.344 10.849 2.217 5.313 9.539 8.67 14.354 11.35H2.834A2.843 2.843 0 000 25.065V36.25a2.842 2.842 0 002.835 2.834h.27v35.999h56.958V39.084h.104a2.842 2.842 0 002.835-2.834V25.065a2.846 2.846 0 00-2.837-2.835zM41.766 5.873c2.07-.306 4.907 1.283 5.176 3.171.386 2.723-3.349 5.192-5.008 6.343-2.484 1.723-4.853 2.611-7.178 4.006.872-3.645 2.512-12.854 7.01-13.52zm-22.534 9.848c-2.19-1.467-6.444-4.378-6.342-7.678.11-3.552 5.655-6.491 8.68-3.839 3.797 3.331 5.625 10.972 7.01 16.357-3.199-1.519-6.23-2.753-9.348-4.84zm5.882 56.426H6.042V39.084h19.072v33.063zm0-36.063H3V25.23h22.114v10.854zm10.001 36.062h-7.063V25.23h7.063v46.916zm22.01.001H38.053V39.084h19.072v33.063zM60 36.084H38.053V25.23H60v10.854z"/></svg>

<svg version="1.1" id="Layer_1" xmlns="http://www.w3.org/2000/svg" xmlns:xlink="http://www.w3.org/1999/xlink" x="0px" y="0px" width="63px" height="75.084px" viewBox="0 0 63 75.084" enable-background="new 0 0 63 75.084" xml:space="preserve">
  <path d="M60.165,22.23h-0.103H35.758c13.604-6.815,14.688-11.115,14.188-13.52c-1.145-3.916-5.604-6.938-9.848-5.341 c-5.484,2.063-7.029,10.262-8.514,16.19C29.69,13.561,27.858,5.91,23.573,2.034c-1.242-1.125-3.049-2.237-5.676-2.003 c-3.965,0.352-9.652,5.317-7.344,10.849c2.217,5.313,9.539,8.67,14.354,11.35H2.834C1.275,22.23,0,23.506,0,25.065V36.25 c0,1.559,1.275,2.834,2.835,2.834h0.27v35.999h56.958V39.084h0.104c1.561,0,2.835-1.275,2.835-2.834V25.065 C63,23.506,61.725,22.23,60.165,22.23z M41.766,5.873c2.07-0.306,4.907,1.283,5.176,3.171c0.386,2.723-3.349,5.192-5.008,6.343 c-2.484,1.723-4.853,2.611-7.178,4.006C35.628,15.748,37.268,6.539,41.766,5.873z M19.232,15.721 c-2.19-1.467-6.444-4.378-6.342-7.678c0.11-3.552,5.655-6.491,8.68-3.839c3.797,3.331,5.625,10.972,7.01,16.357 C25.381,19.042,22.35,17.808,19.232,15.721z M25.114,72.147H6.042V39.084h19.072V72.147z M25.114,36.084H3V25.23h22.114V36.084z  M35.115,72.146h-7.063V25.23h7.063V72.146z M57.125,72.147H38.053V39.084h19.072V72.147z M60,36.084H38.053V25.23H60V36.084z"/>
</svg>
